X:0724
T:Lady Eliza Callander's Favourite.
C:Irish.
M:6/8
L:1/8
Q:3/8=60 "Slow"
I: :: ||
N:bar 8 is printed |^gfg  a2g|
Z:Jack Campin * www.campin.me.uk * 2009
K:D
fdd ceA |B>dB A2F|fdd ceA | B>dc d3 :|
faa bd'b|afd  ceA|faa bd'b|^gfg  a2=g|
fdd ceA |BdB  A2F|fdd ceA | B>dc d2 |]
<end>
<start>
